X:1
T:The Shepherd of Love
T:Albert Simpson Reitz, 1911
T:The Shepherd of Love
T:Public Domain
T:Public Domain
C:Albert Simpson Reitz, 1911
Z:Public Domain
%%score ( 1 2 ) ( 3 4 )
L:1/8
M:6/8
K:Ab
V:1 treble 
V:2 treble 
V:3 bass 
V:4 bass 
V:1
 [CE] | [Ec][Ac][Fc] [Ec]2 [Ec] | [Fd][FA][=EB] [_Ec]2 [Ec] | [=Dc][DB][DA] [DF]2 [DB] | %4
w: 1.~The|Shep- herd of Love is|seek- ing the lost In|paths that are rough and|
w: 2.~The|Shep- herd of Love knows|His sheep by name, And|ten- der- ly leads the|
w: 3.~The|Shep- herd of Love our|ran- som hath paid, And|of- fers sal- va- tion|
w: 4.~The|Shep- herd of Love now|seek- eth His sheep, He|seek- eth wha- te’er the|
 [DB]3- [DB]2 [CE] | [CE][Ac][Ac] [_Ge]2 [Ge]/[Ge]/ | [Fd]2 [=EA] [_Ec]2 [=Ed] | %7
w: steep; * He’s|call- ing the lambs that have|gone a- stray, He’s|
w: way; * O|wear- y one, come to the|Shep- herd’s fold, He’s|
w: free; * He’s|pa- tient- ly wait- ing for|thee to come, He’s|
w: cost; * Be-|hold, He is call- ing the|wan- d’rer home, He’s|
 [Ec] [CE]2 [Ec][Ec][DB] | [CA]3- [CA]2 z ||"^Refrain" EFG AEA B2 A G3 | EFG B2 G | AGF E3 | %12
w: call- ing, call- ing His|sheep. *||||
w: call- ing, call- ing to-|day. *|Out of your dark- ness of sin and shame,|for- ev- er the same,|Him now, be- lieve|
w: call- ing, call- ing for|thee. *||||
w: call- ing, call- ing the|lost. *||||
 [Ec][=D=B][Ec] [Ae]2 A | [FA][FA][FB] [=Ec]2 [_Ed] | [Ec][CE][Ec] [Ec]2 [DB] | [CA]3- [CA]2 |] %16
w: ||||
w: name, O an- swer the|to- day. * * *|||
w: ||||
w: ||||
V:2
 x | x6 | x6 | x6 | x6 | x6 | x6 | x6 | x6 || c3 c3 d3 d3 | d3 d3 | c3 c3 | x5 _G | x6 | x6 | x5 |] %16
w: ||||||||||||||||
w: |||||||||In- to His love,|Come to|on His|call||||
V:3
 z | [A,,E,]3 [A,,A,]3 | [D,A,]3 [A,,A,]3 | [F,A,]3 [B,,A,]3 | [E,G,]3- [E,G,]2 z | %5
 [A,,A,]3 [C,A,]3 | [D,A,]3 [A,,A,]2 z | [E,A,]3 A,F,G, | [A,,E,]3- [A,,E,]2 z || %9
 [A,,A,]3 [A,,A,]3 G,2 A, [E,B,]3 | G,A,B, G,2 E, | E,E,(F,/G,/) A,3 | A,A,A, [A,C]2 [C,A,] | %13
 [D,A,][D,G,][D,F,] [C,G,]2 [B,,G,] | [A,,A,][A,,A,][A,,A,] (A,G,)E, | [A,,E,]3- [A,,E,]2 |] %16
V:4
 x | x6 | x6 | x6 | x6 | x6 | x6 | x3 E,3 | x6 || x6 E,3 x3 | E,3 E,3 | A,,3 A,,3 | x6 | x6 | %14
 x3 E,2 x | x5 |] %16

